Antu/mimetypes/16/application-x-7z-compressed.svg

<?xml version="1.0" encoding="UTF-8" standalone="no"?>
<!-- Created with Inkscape (http://www.inkscape.org/) -->

<svg
   xmlns:osb="http://www.openswatchbook.org/uri/2009/osb"
   xmlns:dc="http://purl.org/dc/elements/1.1/"
   xmlns:cc="http://creativecommons.org/ns#"
   xmlns:rdf="http://www.w3.org/1999/02/22-rdf-syntax-ns#"
   xmlns:svg="http://www.w3.org/2000/svg"
   xmlns="http://www.w3.org/2000/svg"
   xmlns:sodipodi="http://sodipodi.sourceforge.net/DTD/sodipodi-0.dtd"
   xmlns:inkscape="http://www.inkscape.org/namespaces/inkscape"
   width="16"
   height="16"
   id="svg2"
   version="1.1"
   inkscape:version="0.91 r13725"
   viewBox="0 0 16 16"
   sodipodi:docname="application-x-ace.svg">
  <defs
     id="defs4">
    <linearGradient
       osb:paint="gradient"
       id="linearGradient4207">
      <stop
         id="stop3371"
         offset="0"
         style="stop-color:#3498db;stop-opacity:1;" />
      <stop
         id="stop3373"
         offset="1"
         style="stop-color:#3498db;stop-opacity:0;" />
    </linearGradient>
  </defs>
  <sodipodi:namedview
     id="base"
     pagecolor="#9c9c9c"
     bordercolor="#666666"
     borderopacity="1.0"
     inkscape:pageopacity="0"
     inkscape:pageshadow="2"
     inkscape:zoom="15.839192"
     inkscape:cx="-17.411644"
     inkscape:cy="7.9572678"
     inkscape:document-units="px"
     inkscape:current-layer="layer1-3-6-6"
     showgrid="false"
     inkscape:showpageshadow="false"
     borderlayer="true"
     inkscape:window-width="1366"
     inkscape:window-height="635"
     inkscape:window-x="0"
     inkscape:window-y="36"
     inkscape:window-maximized="1"
     units="px"
     inkscape:snap-bbox="true"
     inkscape:object-nodes="true"
     showguides="false">
    <inkscape:grid
       type="xygrid"
       id="grid4101" />
    <sodipodi:guide
       position="2,14.000017"
       orientation="12,0"
       id="guide4071" />
    <sodipodi:guide
       position="2,2.0000174"
       orientation="0,12"
       id="guide4073" />
    <sodipodi:guide
       position="14,2.0000174"
       orientation="-12,0"
       id="guide4075" />
    <sodipodi:guide
       position="14,14.000017"
       orientation="0,-12"
       id="guide4077" />
  </sodipodi:namedview>
  <metadata
     id="metadata7">
    <rdf:RDF>
      <cc:Work
         rdf:about="">
        <dc:format>image/svg+xml</dc:format>
        <dc:type
           rdf:resource="http://purl.org/dc/dcmitype/StillImage" />
        <dc:title />
      </cc:Work>
    </rdf:RDF>
  </metadata>
  <g
     inkscape:label="Capa 1"
     inkscape:groupmode="layer"
     id="layer1"
     transform="translate(0,-1036.3622)">
    <g
       transform="translate(-412.88298,512.00351)"
       id="layer1-4"
       inkscape:label="Capa 1">
      <g
         style="fill:#ffffff;fill-opacity:1"
         inkscape:label="Capa 1"
         id="layer1-7"
         transform="translate(392.57143,-514.5642)" />
      <g
         transform="translate(341.79698,500.25245)"
         id="g4240">
        <g
           transform="translate(-392.98822,-511.27795)"
           id="layer1-1"
           inkscape:label="Capa 1"
           inkscape:transform-center-x="5.4653607"
           inkscape:transform-center-y="-9.4924686">
          <g
             transform="matrix(1.3333333,0,0,1.3333333,-61.890355,-165.99713)"
             id="layer1-15"
             inkscape:label="Capa 1">
            <g
               style="fill:#ffffff;fill-opacity:1"
               inkscape:label="Capa 1"
               id="layer1-7-8"
               transform="translate(392.57143,-514.5642)" />
            <g
               transform="translate(341.79698,500.25245)"
               id="g4240-4">
              <g
                 transform="translate(-392.98822,-511.27795)"
                 id="layer1-1-5"
                 inkscape:label="Capa 1"
                 inkscape:transform-center-x="5.4653607"
                 inkscape:transform-center-y="-9.4924686">
                <g
                   style="stroke:#1f2a47;stroke-opacity:1"
                   transform="translate(0.41988239,0.03484499)"
                   inkscape:label="Capa 1"
                   id="layer1-3-8">
                  <g
                     id="g4186"
                     transform="translate(440.36158,509.62534)">
                    <g
                       id="g4186-3"
                       transform="matrix(0.52109202,0,0,0.52109202,-0.76995909,19.353185)"
                       style="stroke:#1f2a47;stroke-opacity:1">
                      <g
                         id="layer1-3-6"
                         inkscape:label="Capa 1"
                         transform="translate(-400.50475,-509.14629)">
                        <g
                           transform="matrix(1.0037077,0,0,1.0037077,11.267145,17.846026)"
                           id="layer1-2"
                           inkscape:label="Capa 1">
                          <g
                             id="g4414-9"
                             transform="matrix(1.5263052,0,0,1.5263052,376.49864,-1040.1735)">
                            <g
                               transform="matrix(1.1526351,0,0,1.1526351,-4.8344134,-156.43331)"
                               id="g4180">
                              <g
                                 id="g4186-6"
                                 transform="matrix(0.56841663,0,0,0.56841663,10.426663,1005.5718)" />
                              <g
                                 id="g4280">
                                <g
                                   transform="matrix(0.81509151,0,0,0.81509151,-323.19965,584.90903)"
                                   id="layer1-43"
                                   inkscape:label="Capa 1">
                                <g
                                   style="fill:#ffffff;fill-opacity:1"
                                   inkscape:label="Capa 1"
                                   id="layer1-7-3"
                                   transform="translate(392.57143,-514.5642)" />
                                <g
                                   transform="translate(341.79698,500.25245)"
                                   id="g4240-2">
                                <g
                                   transform="translate(-392.98822,-511.27795)"
                                   id="layer1-1-56"
                                   inkscape:label="Capa 1"
                                   inkscape:transform-center-x="5.4653607"
                                   inkscape:transform-center-y="-9.4924686">
                                <g
                                   style="stroke:#1f2a47;stroke-opacity:1"
                                   transform="translate(0.41988239,0.03484499)"
                                   inkscape:label="Capa 1"
                                   id="layer1-3">
                                <g
                                   id="g4186-1"
                                   transform="translate(440.36158,509.62534)">
                                <g
                                   id="g4186-3-9"
                                   transform="matrix(0.52109202,0,0,0.52109202,-0.76995909,19.353185)"
                                   style="stroke:#1f2a47;stroke-opacity:1">
                                <g
                                   id="layer1-3-6-6"
                                   inkscape:label="Capa 1"
                                   transform="translate(-400.50475,-509.14629)">
                                <g
                                   transform="matrix(0.5757145,0,0,0.5757145,234.87559,239.02488)"
                                   id="g4162"
                                   style="stroke:none">
                                <path
                                   style="opacity:1;fill:#4d4d4d;fill-opacity:1;stroke:none;stroke-width:2.79999995;stroke-miterlimit:4;stroke-dasharray:none;stroke-opacity:0.55026455"
                                   d="M 1.5996094,0 C 1.15641,0 0.80078125,0.35758184 0.80078125,0.80078125 l 0,14.39843775 C 0.80078125,15.642418 1.15641,16 1.5996094,16 l 12.8007816,0 c 0.443199,0 0.798828,-0.357582 0.798828,-0.800781 l 0,-14.39843775 C 15.199219,0.35758184 14.84359,0 14.400391,0 L 1.5996094,0 Z m 5.984375,0.4453125 0.8886718,0 c 0.1969245,0 0.3554688,0.15854427 0.3554688,0.35546875 l 0,0.0878906 c 0,0.19692455 -0.1585443,0.35546875 -0.3554688,0.35546875 l -0.8886718,0 c -0.1969245,0 -0.3554688,-0.1585442 -0.3554688,-0.35546875 l 0,-0.0878906 c 0,-0.19692448 0.1585443,-0.35546875 0.3554688,-0.35546875 z m -0.00391,1.15625 0.890625,0 c 0.1969245,0 0.3554688,0.1585443 0.3554688,0.3554687 l 0,0.089844 c 0,0.1969245 -0.1585443,0.3554688 -0.3554688,0.3554688 l -0.890625,0 c -0.1969245,0 -0.3554687,-0.1585443 -0.3554687,-0.3554688 l 0,-0.089844 c 0,-0.1969244 0.1585442,-0.3554687 0.3554687,-0.3554687 z m -0.00977,1.1425781 0.8886719,0 c 0.1969245,0 0.3554687,0.1585443 0.3554687,0.3554688 l 0,0.089844 c 0,0.1969245 -0.1585442,0.3554688 -0.3554687,0.3554688 l -0.8886719,0 c -0.1969245,0 -0.3554687,-0.1585443 -0.3554687,-0.3554688 l 0,-0.089844 c 0,-0.1969245 0.1585442,-0.3554688 0.3554687,-0.3554688 z m 0.017578,1.1914063 0.8886719,0 c 0.1969245,0 0.3554687,0.1585442 0.3554687,0.3554687 l 0,0.087891 c 0,0.1969245 -0.1585442,0.3554688 -0.3554687,0.3554688 l -0.8886719,0 c -0.1969245,0 -0.3554687,-0.1585443 -0.3554687,-0.3554688 l 0,-0.087891 c 0,-0.1969245 0.1585442,-0.3554687 0.3554687,-0.3554687 z m 0,1.1679687 0.8886719,0 c 0.1969245,0 0.3554687,0.1585443 0.3554687,0.3554688 l 0,0.089844 c 0,0.1969245 -0.1585442,0.3554688 -0.3554687,0.3554688 l -0.8886719,0 c -0.1969245,0 -0.3554687,-0.1585443 -0.3554687,-0.3554688 l 0,-0.089844 c 0,-0.1969245 0.1585442,-0.3554688 0.3554687,-0.3554688 z m 0,1.1972656 0.8886719,0 c 0.1969245,0 0.3554687,0.1585443 0.3554687,0.3554688 l 0,0.087891 c 0,0.1969245 -0.1585442,0.3554688 -0.3554687,0.3554688 l -0.8886719,0 c -0.1969245,0 -0.3554687,-0.1585443 -0.3554687,-0.3554688 l 0,-0.087891 c 0,-0.1969245 0.1585442,-0.3554688 0.3554687,-0.3554688 z m 0.072266,1.2089844 0.7050782,0 c 0.1401481,0 0.2539062,0.1152033 0.2539062,0.2558594 l 0,0.5039062 0.3925782,1.15625 c 0.109708,0.3220643 0.057115,0.6814478 -0.140625,0.9589848 -0.1977402,0.277028 -0.5197108,0.441406 -0.859375,0.441406 -0.3395963,0 -0.6596778,-0.164378 -0.8574219,-0.441406 C 6.9565567,10.107229 6.9039318,9.7480975 7.0136719,9.4257812 l 0.3925781,-1.15625 0,-0.5039062 c 0,-0.1406281 0.1137581,-0.2558594 0.2539062,-0.2558594 z M 7.6289062,9.203125 7.4960938,9.5917969 c -0.05636,0.1664161 -0.027769,0.3509725 0.074219,0.4941411 0.2035002,0.285792 0.6812975,0.285792 0.8847656,0 C 8.5570542,9.9427694 8.5837278,9.757961 8.5273438,9.5917969 L 8.3964844,9.203125 l -0.7675782,0 z"
                                   transform="matrix(2.4999981,0,0,2.4999981,388.57146,503.798)"
                                   id="rect4319"
                                   inkscape:connector-curvature="0" />
                                <g
                                   transform="translate(-0.71741557,0.01714041)"
                                   inkscape:label="Capa 1"
                                   id="layer1-7-4-3"
                                   style="fill:#ffffff;fill-opacity:1;stroke:none" />
                                </g>
                                </g>
                                </g>
                                </g>
                                </g>
                                </g>
                                </g>
                                </g>
                              </g>
                            </g>
                          </g>
                        </g>
                      </g>
                    </g>
                  </g>
                </g>
              </g>
            </g>
          </g>
        </g>
      </g>
    </g>
  </g>
</svg>

<?xml version="1.0" encoding="UTF-8" standalone="no"?>
<!-- Created with Inkscape (http://www.inkscape.org/) -->

<svg
   xmlns:osb="http://www.openswatchbook.org/uri/2009/osb"
   xmlns:dc="http://purl.org/dc/elements/1.1/"
   xmlns:cc="http://creativecommons.org/ns#"
   xmlns:rdf="http://www.w3.org/1999/02/22-rdf-syntax-ns#"
   xmlns:svg="http://www.w3.org/2000/svg"
   xmlns="http://www.w3.org/2000/svg"
   xmlns:sodipodi="http://sodipodi.sourceforge.net/DTD/sodipodi-0.dtd"
   xmlns:inkscape="http://www.inkscape.org/namespaces/inkscape"
   width="16"
   height="16"
   id="svg2"
   version="1.1"
   inkscape:version="0.91 r13725"
   viewBox="0 0 16 16"
   sodipodi:docname="package-x-generic.svg">
  <defs
     id="defs4">
    <linearGradient
       osb:paint="gradient"
       id="linearGradient4207">
      <stop
         id="stop3371"
         offset="0"
         style="stop-color:#3498db;stop-opacity:1;" />
      <stop
         id="stop3373"
         offset="1"
         style="stop-color:#3498db;stop-opacity:0;" />
    </linearGradient>
  </defs>
  <sodipodi:namedview
     id="base"
     pagecolor="#9c9c9c"
     bordercolor="#666666"
     borderopacity="1.0"
     inkscape:pageopacity="0"
     inkscape:pageshadow="2"
     inkscape:zoom="15.839192"
     inkscape:cx="-5.1319775"
     inkscape:cy="7.9572678"
     inkscape:document-units="px"
     inkscape:current-layer="layer1-3-6-6"
     showgrid="false"
     inkscape:showpageshadow="false"
     borderlayer="true"
     inkscape:window-width="1366"
     inkscape:window-height="633"
     inkscape:window-x="0"
     inkscape:window-y="33"
     inkscape:window-maximized="1"
     units="px"
     inkscape:snap-bbox="true"
     inkscape:object-nodes="true"
     showguides="false">
    <inkscape:grid
       type="xygrid"
       id="grid4101" />
    <sodipodi:guide
       position="2,14.000017"
       orientation="12,0"
       id="guide4071" />
    <sodipodi:guide
       position="2,2.0000174"
       orientation="0,12"
       id="guide4073" />
    <sodipodi:guide
       position="14,2.0000174"
       orientation="-12,0"
       id="guide4075" />
    <sodipodi:guide
       position="14,14.000017"
       orientation="0,-12"
       id="guide4077" />
  </sodipodi:namedview>
  <metadata
     id="metadata7">
    <rdf:RDF>
      <cc:Work
         rdf:about="">
        <dc:format>image/svg+xml</dc:format>
        <dc:type
           rdf:resource="http://purl.org/dc/dcmitype/StillImage" />
        <dc:title />
      </cc:Work>
    </rdf:RDF>
  </metadata>
  <g
     inkscape:label="Capa 1"
     inkscape:groupmode="layer"
     id="layer1"
     transform="translate(0,-1036.3622)">
    <g
       transform="translate(-412.88298,512.00351)"
       id="layer1-4"
       inkscape:label="Capa 1">
      <g
         style="fill:#ffffff;fill-opacity:1"
         inkscape:label="Capa 1"
         id="layer1-7"
         transform="translate(392.57143,-514.5642)" />
      <g
         transform="translate(341.79698,500.25245)"
         id="g4240">
        <g
           transform="translate(-392.98822,-511.27795)"
           id="layer1-1"
           inkscape:label="Capa 1"
           inkscape:transform-center-x="5.4653607"
           inkscape:transform-center-y="-9.4924686">
          <g
             transform="matrix(1.3333333,0,0,1.3333333,-61.890355,-165.99713)"
             id="layer1-15"
             inkscape:label="Capa 1">
            <g
               style="fill:#ffffff;fill-opacity:1"
               inkscape:label="Capa 1"
               id="layer1-7-8"
               transform="translate(392.57143,-514.5642)" />
            <g
               transform="translate(341.79698,500.25245)"
               id="g4240-4">
              <g
                 transform="translate(-392.98822,-511.27795)"
                 id="layer1-1-5"
                 inkscape:label="Capa 1"
                 inkscape:transform-center-x="5.4653607"
                 inkscape:transform-center-y="-9.4924686">
                <g
                   style="stroke:#1f2a47;stroke-opacity:1"
                   transform="translate(0.41988239,0.03484499)"
                   inkscape:label="Capa 1"
                   id="layer1-3-8">
                  <g
                     id="g4186"
                     transform="translate(440.36158,509.62534)">
                    <g
                       id="g4186-3"
                       transform="matrix(0.52109202,0,0,0.52109202,-0.76995909,19.353185)"
                       style="stroke:#1f2a47;stroke-opacity:1">
                      <g
                         id="layer1-3-6"
                         inkscape:label="Capa 1"
                         transform="translate(-400.50475,-509.14629)">
                        <g
                           transform="matrix(1.0037077,0,0,1.0037077,11.267145,17.846026)"
                           id="layer1-2"
                           inkscape:label="Capa 1">
                          <g
                             id="g4414-9"
                             transform="matrix(1.5263052,0,0,1.5263052,376.49864,-1040.1735)">
                            <g
                               transform="matrix(1.1526351,0,0,1.1526351,-4.8344134,-156.43331)"
                               id="g4180">
                              <g
                                 id="g4186-6"
                                 transform="matrix(0.56841663,0,0,0.56841663,10.426663,1005.5718)" />
                              <g
                                 id="g4280">
                                <g
                                   transform="matrix(0.81509151,0,0,0.81509151,-323.19965,584.90903)"
                                   id="layer1-43"
                                   inkscape:label="Capa 1">
                                <g
                                   style="fill:#ffffff;fill-opacity:1"
                                   inkscape:label="Capa 1"
                                   id="layer1-7-3"
                                   transform="translate(392.57143,-514.5642)" />
                                <g
                                   transform="translate(341.79698,500.25245)"
                                   id="g4240-2">
                                <g
                                   transform="translate(-392.98822,-511.27795)"
                                   id="layer1-1-56"
                                   inkscape:label="Capa 1"
                                   inkscape:transform-center-x="5.4653607"
                                   inkscape:transform-center-y="-9.4924686">
                                <g
                                   style="stroke:#1f2a47;stroke-opacity:1"
                                   transform="translate(0.41988239,0.03484499)"
                                   inkscape:label="Capa 1"
                                   id="layer1-3">
                                <g
                                   id="g4186-1"
                                   transform="translate(440.36158,509.62534)">
                                <g
                                   id="g4186-3-9"
                                   transform="matrix(0.52109202,0,0,0.52109202,-0.76995909,19.353185)"
                                   style="stroke:#1f2a47;stroke-opacity:1">
                                <g
                                   id="layer1-3-6-6"
                                   inkscape:label="Capa 1"
                                   transform="translate(-400.50475,-509.14629)">
                                <g
                                   transform="matrix(0.76761933,0,0,0.76761933,156.46876,138.50552)"
                                   id="g4162"
                                   style="stroke:none">
                                <path
                                   style="opacity:1;fill:#4d4d4d;fill-opacity:1;stroke:none;stroke-width:2.79999995;stroke-miterlimit:4;stroke-dasharray:none;stroke-opacity:0.55026455"
                                   d="M 1.5996094 0 C 1.15641 0 0.80078125 0.35758184 0.80078125 0.80078125 L 0.80078125 15.199219 C 0.80078125 15.642418 1.15641 16 1.5996094 16 L 14.400391 16 C 14.84359 16 15.199219 15.642418 15.199219 15.199219 L 15.199219 0.80078125 C 15.199219 0.35758184 14.84359 0 14.400391 0 L 1.5996094 0 z M 7.5839844 0.4453125 L 8.4726562 0.4453125 C 8.6695807 0.4453125 8.828125 0.60385677 8.828125 0.80078125 L 8.828125 0.88867188 C 8.828125 1.0855964 8.6695807 1.2441406 8.4726562 1.2441406 L 7.5839844 1.2441406 C 7.3870599 1.2441406 7.2285156 1.0855964 7.2285156 0.88867188 L 7.2285156 0.80078125 C 7.2285156 0.60385677 7.3870599 0.4453125 7.5839844 0.4453125 z M 7.5800781 1.6015625 L 8.4707031 1.6015625 C 8.6676276 1.6015625 8.8261719 1.7601068 8.8261719 1.9570312 L 8.8261719 2.046875 C 8.8261719 2.2437995 8.6676276 2.4023438 8.4707031 2.4023438 L 7.5800781 2.4023438 C 7.3831536 2.4023438 7.2246094 2.2437995 7.2246094 2.046875 L 7.2246094 1.9570312 C 7.2246094 1.7601068 7.3831536 1.6015625 7.5800781 1.6015625 z M 7.5703125 2.7441406 L 8.4589844 2.7441406 C 8.6559089 2.7441406 8.8144531 2.9026849 8.8144531 3.0996094 L 8.8144531 3.1894531 C 8.8144531 3.3863776 8.6559089 3.5449219 8.4589844 3.5449219 L 7.5703125 3.5449219 C 7.373388 3.5449219 7.2148438 3.3863776 7.2148438 3.1894531 L 7.2148438 3.0996094 C 7.2148438 2.9026849 7.373388 2.7441406 7.5703125 2.7441406 z M 7.5878906 3.9355469 L 8.4765625 3.9355469 C 8.673487 3.9355469 8.8320312 4.0940911 8.8320312 4.2910156 L 8.8320312 4.3789062 C 8.8320312 4.5758307 8.673487 4.734375 8.4765625 4.734375 L 7.5878906 4.734375 C 7.3909661 4.734375 7.2324219 4.5758307 7.2324219 4.3789062 L 7.2324219 4.2910156 C 7.2324219 4.0940911 7.3909661 3.9355469 7.5878906 3.9355469 z M 7.5878906 5.1035156 L 8.4765625 5.1035156 C 8.673487 5.1035156 8.8320312 5.2620599 8.8320312 5.4589844 L 8.8320312 5.5488281 C 8.8320312 5.7457526 8.673487 5.9042969 8.4765625 5.9042969 L 7.5878906 5.9042969 C 7.3909661 5.9042969 7.2324219 5.7457526 7.2324219 5.5488281 L 7.2324219 5.4589844 C 7.2324219 5.2620599 7.3909661 5.1035156 7.5878906 5.1035156 z M 7.5878906 6.3007812 L 8.4765625 6.3007812 C 8.673487 6.3007812 8.8320312 6.4593255 8.8320312 6.65625 L 8.8320312 6.7441406 C 8.8320312 6.9410651 8.673487 7.0996094 8.4765625 7.0996094 L 7.5878906 7.0996094 C 7.3909661 7.0996094 7.2324219 6.9410651 7.2324219 6.7441406 L 7.2324219 6.65625 C 7.2324219 6.4593255 7.3909661 6.3007812 7.5878906 6.3007812 z M 7.6601562 7.5097656 L 8.3652344 7.5097656 C 8.5053825 7.5097656 8.6191406 7.6249689 8.6191406 7.765625 L 8.6191406 8.2695312 L 9.0117188 9.4257812 C 9.1214268 9.7478455 9.0688339 10.107229 8.8710938 10.384766 C 8.6733536 10.661794 8.351383 10.826172 8.0117188 10.826172 C 7.6721225 10.826172 7.352041 10.661794 7.1542969 10.384766 C 6.9565567 10.107229 6.9039318 9.7480975 7.0136719 9.4257812 L 7.40625 8.2695312 L 7.40625 7.765625 C 7.40625 7.6249969 7.5200081 7.5097656 7.6601562 7.5097656 z M 7.6289062 9.203125 L 7.4960938 9.5917969 C 7.4397337 9.758213 7.4683244 9.9427694 7.5703125 10.085938 C 7.7738127 10.37173 8.25161 10.37173 8.4550781 10.085938 C 8.5570542 9.9427694 8.5837278 9.757961 8.5273438 9.5917969 L 8.3964844 9.203125 L 7.6289062 9.203125 z "
                                   transform="matrix(2.4999981,0,0,2.4999981,388.57146,503.798)"
                                   id="rect4319" />
                                <g
                                   transform="translate(-0.71741557,0.01714041)"
                                   inkscape:label="Capa 1"
                                   id="layer1-7-4-3"
                                   style="fill:#ffffff;fill-opacity:1;stroke:none" />
                                </g>
                                </g>
                                </g>
                                </g>
                                </g>
                                </g>
                                </g>
                                </g>
                              </g>
                            </g>
                          </g>
                        </g>
                      </g>
                    </g>
                  </g>
                </g>
              </g>
            </g>
          </g>
        </g>
      </g>
    </g>
  </g>
</svg>
